docs/images/info/5.svg

<svg width="94" height="89" viewBox="0 0 94 89" fill="none" xmlns="http://www.w3.org/2000/svg">
<path d="M88.2101 22.2669C78.4949 5.59528 57.3302 -3.15436 35.5152 1.0431C38.688 2.32401 51.5365 7.90093 57.2317 21.6757C64.0895 38.2291 57.3499 58.7237 42.511 68.301C30.6083 75.9865 17.7006 73.9765 14.1338 73.3065C30.1945 88.6775 52.6795 92.8552 69.9029 84.1844C85.2739 76.4398 90.8311 61.2856 92.1514 57.3246C93.2156 53.403 97.0583 37.362 88.2299 22.2669" fill="#2B3B46"/>
<path d="M23.001 51.3142C23.001 51.9645 23.2375 52.5754 23.5528 53.1272C24.0651 54.5461 25.4052 55.5708 27.0014 55.5708H27.1196C27.1196 55.5708 27.2576 55.6102 27.3364 55.6102C27.4152 55.6102 27.4743 55.5708 27.5532 55.5708H44.5204C46.5698 55.5708 48.2252 53.9155 48.2252 51.866V50.9989C48.2252 48.9495 46.5698 47.2941 44.5204 47.2941H37.1699L47.5354 36.9285C48.777 35.687 48.8755 33.7755 47.969 32.337C47.4566 30.9181 46.1166 29.8737 44.5204 29.8737H27.0211C24.9716 29.8737 23.336 31.529 23.336 33.5785V34.4455C23.336 36.495 24.9913 38.1503 27.0211 38.1503H34.6278L24.1045 48.6736C23.4148 49.3633 23.0207 50.3092 23.0207 51.2945" fill="#2B3B46"/>
<path d="M20.9331 38.0715C20.9331 36.1008 19.3172 34.4849 17.3466 34.4849H12.1244L20.066 26.5432C21.4652 25.1441 21.4652 22.8778 20.066 21.4787C20.066 21.4787 20.0463 21.4787 20.0266 21.459C19.3763 20.7101 18.4304 20.1978 17.3466 20.1978H3.67032C1.69968 20.1978 0.0837523 21.8137 0.0837523 23.7843C0.0837523 25.755 1.69968 27.3709 3.67032 27.3709H9.10928L1.04937 35.4308C-0.349789 36.83 -0.349789 39.0962 1.04937 40.4953C1.04937 40.4953 1.06907 40.4953 1.08878 40.5151C1.73909 41.2048 2.66529 41.658 3.69002 41.658H17.3663C19.3369 41.658 20.9528 40.0421 20.9528 38.0715" fill="#2B3B46"/>
</svg>

<svg xmlns="http://www.w3.org/2000/svg" width="94" height="89" fill="none"><path fill="#2B3B46" d="M88.21 22.267C78.495 5.595 57.33-3.154 35.515 1.043c3.173 1.281 16.021 6.858 21.717 20.633C64.09 38.229 57.35 58.724 42.51 68.3c-11.903 7.686-24.81 5.676-28.377 5.005 16.06 15.371 38.546 19.55 55.769 10.878 15.37-7.744 20.928-22.898 22.248-26.86 1.065-3.921 4.907-19.962-3.921-35.057"/><path fill="#2B3B46" d="M23.001 51.314c0 .65.236 1.261.552 1.813.512 1.42 1.852 2.444 3.448 2.444h.119s.138.04.216.04c.08 0 .138-.04.217-.04H44.52a3.7 3.7 0 0 0 3.705-3.705v-.867a3.7 3.7 0 0 0-3.705-3.705h-7.35L47.535 36.93c1.242-1.242 1.34-3.154.434-4.592-.512-1.419-1.852-2.463-3.449-2.463H27.021a3.684 3.684 0 0 0-3.685 3.704v.867c0 2.05 1.655 3.705 3.685 3.705h7.607L24.105 48.674a3.7 3.7 0 0 0-1.084 2.62m-2.088-13.222a3.6 3.6 0 0 0-3.586-3.587h-5.223l7.942-7.942a3.58 3.58 0 0 0 0-5.064s-.02 0-.04-.02c-.65-.749-1.596-1.261-2.68-1.261H3.67a3.6 3.6 0 0 0-3.586 3.586 3.6 3.6 0 0 0 3.586 3.587h5.44l-8.06 8.06a3.58 3.58 0 0 0 0 5.064s.02 0 .039.02a3.6 3.6 0 0 0 2.601 1.143h13.676a3.6 3.6 0 0 0 3.587-3.587"/></svg>
